icons/1_Primary/Unity.svg

<svg width="1024" height="1024" viewBox="0 0 1024 1024" fill="none" xmlns="http://www.w3.org/2000/svg">
<g clip-path="url(#clip0_2_3789)">
<path d="M512 1024C794.77 1024 1024 794.77 1024 512C1024 229.23 794.77 0 512 0C229.23 0 0 229.23 0 512C0 794.77 229.23 1024 512 1024Z" fill="#56595B"/>
<path d="M738.88 375.13L531.33 256V347.6L531.86 347.9V348.12L612.86 394.71C613.367 395.012 613.8 395.421 614.13 395.91C614.43 396.434 614.621 397.014 614.692 397.613C614.764 398.213 614.714 398.821 614.546 399.401C614.379 399.981 614.096 400.521 613.715 400.99C613.334 401.459 612.863 401.847 612.33 402.13L516 457.73C514.629 458.51 513.078 458.921 511.5 458.921C509.922 458.921 508.372 458.51 507 457.73L411.17 402.14C410.451 401.756 409.849 401.184 409.43 400.485C409.01 399.785 408.789 398.985 408.789 398.17C408.789 397.355 409.01 396.555 409.43 395.855C409.849 395.156 410.451 394.584 411.17 394.2L492.17 347.61V256L285.65 375.13V376L285.12 375.69V614.45L364.54 568.92V568.69L365.07 568.39V474.67C365.091 473.625 365.485 472.621 366.18 471.84C366.887 471.197 367.791 470.813 368.744 470.749C369.697 470.686 370.644 470.947 371.43 471.49L467.79 527.08C469.176 527.91 470.336 529.069 471.168 530.454C472 531.838 472.478 533.407 472.56 535.02V646.22C472.15 648.28 469.8 650 467.29 649.92C466.909 649.795 466.546 649.62 466.21 649.4L385.21 602.81L384.68 603.11L384.15 602.81L304.73 648.34L511.21 767.47V766.86L511.74 767.17V768L718.23 648.87L718.04 648.76L718.76 648.34L639.34 602.8L558.34 649.39C555.69 650.98 551.46 648.86 551.46 645.68V534.5C551.46 532.226 552.321 530.035 553.87 528.37C554.42 527.864 555.036 527.433 555.7 527.09L652 471.5C654.65 469.91 658.88 472.03 658.88 475.21V568.93L738.3 614.46V375.66L738.11 375.55L738.88 375.13Z" fill="white"/>
</g>
<defs>
<clipPath id="clip0_2_3789">
<rect width="1024" height="1024" fill="white"/>
</clipPath>
</defs>
</svg>

<svg width="1024" height="1024" fill="none" xmlns="http://www.w3.org/2000/svg"><g clip-path="url(#a)"><path d="M512 1024c282.77 0 512-229.23 512-512S794.77 0 512 0 0 229.23 0 512s229.23 512 512 512Z" fill="#56595B"/><path d="M738.88 375.13 531.33 256v91.6l.53.3v.22l81 46.59a4 4 0 0 1 1.27 1.2 4.5 4.5 0 0 1-.415 5.08 4.51 4.51 0 0 1-1.385 1.14L516 457.73a9.102 9.102 0 0 1-9 0l-95.83-55.59a4.5 4.5 0 0 1 0-7.94l81-46.59V256L285.65 375.13v.87l-.53-.31v238.76l79.42-45.53v-.23l.53-.3v-93.72a4.391 4.391 0 0 1 1.11-2.83 4.232 4.232 0 0 1 5.25-.35l96.36 55.59a9.836 9.836 0 0 1 4.77 7.94v111.2c-.41 2.06-2.76 3.78-5.27 3.7a4.576 4.576 0 0 1-1.08-.52l-81-46.59-.53.3-.53-.3-79.42 45.53 206.48 119.13v-.61l.53.31v.83l206.49-119.13-.19-.11.72-.42-79.42-45.54-81 46.59c-2.65 1.59-6.88-.53-6.88-3.71V534.5a9 9 0 0 1 2.41-6.13 8.395 8.395 0 0 1 1.83-1.28L652 471.5c2.65-1.59 6.88.53 6.88 3.71v93.72l79.42 45.53v-238.8l-.19-.11.77-.42Z" fill="#fff"/></g><defs><clipPath id="a"><path fill="#fff" d="M0 0h1024v1024H0z"/></clipPath></defs></svg>
